src/assets/icons/speaker.svg

<?xml version="1.0" encoding="UTF-8"?>
<svg width="15px" height="14px" viewBox="0 0 15 14" version="1.1" xmlns="http://www.w3.org/2000/svg" xmlns:xlink="http://www.w3.org/1999/xlink">
    <!-- Generator: Sketch 41 (35326) - http://www.bohemiancoding.com/sketch -->
    <title>ic_chatcard_speaker</title>
    <desc>Created with Sketch.</desc>
    <defs></defs>
    <g id="Cardealer" stroke="none" stroke-width="1" fill="none" fill-rule="evenodd">
        <g id="Group-9" fill="#000000">
            <path d="M11.3379281,9.14157767 C11.3213288,9.17307709 11.2838171,9.19595012 11.247351,9.19595012 L5.50190836,9.10759489 C5.41407594,9.1036738 5.33565414,9.13190565 5.26742717,9.18091927 L3.48163204,10.4611552 C3.31812259,10.5768273 3.13330854,10.6381271 2.94731817,10.6381271 C2.64513283,10.6381271 2.3609845,10.4812834 2.16754405,10.2081142 L1.7384461,9.60178294 C1.5819946,9.38102557 1.51612029,9.12576261 1.55245572,8.88317783 C1.58892186,8.63954744 1.72184681,8.43055334 1.93855239,8.27697731 L3.34687725,7.26742732 L3.7408161,7.78618753 C3.81806157,7.88774377 3.93504076,7.94120129 4.05345768,7.94120129 C4.13606198,7.94120129 4.21931979,7.9151914 4.29029152,7.86134176 C4.46268878,7.73037735 4.49641016,7.4843943 4.36544575,7.31199704 L3.9019729,6.70148331 L5.69208123,1.35612261 C5.70319098,1.32305475 5.74240188,1.29077111 5.77769169,1.28554299 C5.78409614,1.28462807 5.79050059,1.28410526 5.79664363,1.28410526 C5.83114922,1.28410526 5.8648706,1.29769837 5.87872511,1.31730382 L11.3419799,9.03531613 C11.3567494,9.0559672 11.359102,9.10145185 11.3379281,9.14157767 L11.3379281,9.14157767 Z M5.90146744,12.715782 L4.57365563,10.6400876 L5.11136778,10.2538602 L6.65810712,12.715782 L5.90146744,12.715782 Z M6.51890842,0.864287212 C6.33278734,0.60131277 5.99622711,0.460545636 5.66345727,0.509689965 C5.33434711,0.558180779 5.05372776,0.792661966 4.94838114,1.10700269 L3.16493867,6.43301935 L1.48344454,7.63836244 C1.09577943,7.91283874 0.844829667,8.31357415 0.776864105,8.76698287 C0.710205574,9.21058886 0.824439998,9.66804937 1.09839349,10.0549303 L1.52749145,10.6611308 C1.86993332,11.1448626 2.3873865,11.4223451 2.94731817,11.4223451 C3.29616448,11.4223451 3.63716862,11.3091563 3.93569427,11.0982016 L5.35643591,13.3192377 C5.42858397,13.4319037 5.55301323,13.5 5.68685311,13.5 L7.36756302,13.5 C7.5102907,13.5 7.64177792,13.4224931 7.7107891,13.297541 C7.77966959,13.1727197 7.77548709,13.0201893 7.69954864,12.899289 L5.81010604,9.89194361 L11.2351956,9.97101893 L11.248658,9.97101893 C11.5728014,9.97101893 11.8799535,9.78999527 12.0316997,9.50271007 C12.1885433,9.20509933 12.1690685,8.84658099 11.9821632,8.58229952 L6.51890842,0.864287212 Z M9.45141327,3.26536672 C10.3511727,3.36260976 11.0039035,4.17375259 10.9069219,5.07246644 L10.9032622,5.10292024 C10.8772523,5.31792668 11.0303055,5.51332767 11.245312,5.53946827 C11.2613885,5.54142881 11.2773342,5.54234373 11.2931493,5.54234373 C11.4885503,5.54234373 11.65768,5.39647918 11.68186,5.19754921 L11.6864346,5.1576848 C11.8300772,3.82804315 10.8652277,2.62936591 9.53571671,2.48572331 C9.3222787,2.46128185 9.12700842,2.61799475 9.10374328,2.8333933 C9.08047815,3.04879185 9.23614543,3.24210159 9.45141327,3.26536672 Z M12.7626431,2.06810108 C12.0909604,1.23369311 11.1346065,0.710881097 10.0696385,0.595862455 C9.85646188,0.571813102 9.66106089,0.728133894 9.63779575,0.943532442 C9.61453062,1.15880029 9.77006719,1.35224073 9.98546574,1.37550587 C10.8422239,1.46804359 11.6114111,1.88864585 12.1517373,2.55993648 C12.6920635,3.2310964 12.9387001,4.07243162 12.8462931,4.92775207 L12.8396272,4.98460788 C12.8129638,5.19948362 12.9656249,5.39540742 13.1803699,5.42207083 C13.1968385,5.42416208 13.2130457,5.4252077 13.2292529,5.4252077 C13.4242617,5.4252077 13.59313,5.27973526 13.6179636,5.0813281 L13.6258058,5.01336254 C13.7408244,3.94852518 13.4343259,2.90250905 12.7626431,2.06810108 Z" id="magazine-copy"></path>
        </g>
    </g>
</svg>

<svg width="15" height="14" viewBox="0 0 15 14" xmlns="http://www.w3.org/2000/svg"><path d="M11.338 9.142a.107.107 0 0 1-.09.054l-5.746-.088a.367.367 0 0 0-.235.073l-1.785 1.28a.925.925 0 0 1-.535.177c-.302 0-.586-.157-.78-.43l-.429-.606a.991.991 0 0 1-.186-.719.896.896 0 0 1 .387-.606l1.408-1.01.394.52a.392.392 0 1 0 .624-.475l-.463-.61 1.79-5.346a.118.118 0 0 1 .086-.07.135.135 0 0 1 .019-.002c.034 0 .068.014.082.033l5.463 7.718c.015.021.017.066-.004.107zM5.9 12.716L4.574 10.64l.537-.386 1.547 2.462h-.757zM6.52.864a.898.898 0 0 0-1.57.243L3.164 6.433 1.483 7.638a1.684 1.684 0 0 0-.706 1.129 1.77 1.77 0 0 0 .321 1.288l.43.606c.342.484.86.761 1.42.761.348 0 .69-.113.988-.324l1.42 2.221c.073.113.197.181.33.181h1.682a.392.392 0 0 0 .332-.6L5.81 9.891l5.425.079h.014a.891.891 0 0 0 .783-.468.885.885 0 0 0-.05-.92L6.52.863zM9.45 3.265c.9.098 1.553.909 1.456 1.807l-.004.03a.392.392 0 0 0 .779.096l.004-.04a2.428 2.428 0 0 0-2.15-2.672.392.392 0 0 0-.085.78zm3.312-1.197A3.983 3.983 0 0 0 10.07.596a.393.393 0 0 0-.085.78 3.204 3.204 0 0 1 2.167 1.184c.54.671.787 1.512.694 2.368l-.006.057a.392.392 0 0 0 .778.096l.008-.068a3.984 3.984 0 0 0-.863-2.945z" fill="#000" fill-rule="evenodd"/></svg>
